packages/ffe-icons/icons/filled/md/view_stream.svg

<svg xmlns="http://www.w3.org/2000/svg" height="24" viewBox="0 -960 960 960" width="24"><path d="M212.309-220.001q-29.827 0-51.067-21.241-21.241-21.24-21.241-51.067v-85.385q0-29.826 21.241-51.066 21.24-21.241 51.067-21.241h535.382q29.827 0 51.067 21.241 21.241 21.24 21.241 51.066v85.385q0 29.827-21.241 51.067-21.24 21.241-51.067 21.241H212.309Zm0-289.998q-29.827 0-51.067-21.241-21.241-21.24-21.241-51.066v-85.385q0-29.827 21.241-51.067 21.24-21.241 51.067-21.241h535.382q29.827 0 51.067 21.241 21.241 21.24 21.241 51.067v85.385q0 29.826-21.241 51.066-21.24 21.241-51.067 21.241H212.309Z"/></svg>

<svg xmlns="http://www.w3.org/2000/svg" height="24" viewBox="0 -960 960 960" width="24"><path d="M212.31-220q-29.83 0-51.07-21.24Q140-262.48 140-292.31v-85.38q0-29.83 21.24-51.07Q182.48-450 212.31-450h535.38q29.83 0 51.07 21.24Q820-407.52 820-377.69v85.38q0 29.83-21.24 51.07Q777.52-220 747.69-220H212.31Zm0-290q-29.83 0-51.07-21.24Q140-552.48 140-582.31v-85.38q0-29.83 21.24-51.07Q182.48-740 212.31-740h535.38q29.83 0 51.07 21.24Q820-697.52 820-667.69v85.38q0 29.83-21.24 51.07Q777.52-510 747.69-510H212.31Z"/></svg>
